public/images/icons/inst.svg

<svg width="20" height="20" viewBox="0 0 20 20" fill="none" xmlns="http://www.w3.org/2000/svg">
<path fill-rule="evenodd" clip-rule="evenodd" d="M5.80612 2.66026C3.84143 2.66026 2.24229 4.2594 2.24229 6.22409V14.6093C2.24229 16.574 3.84144 18.1731 5.80612 18.1731H14.1913C16.156 18.1731 17.7552 16.574 17.7552 14.6093V6.22409C17.7552 4.2594 16.156 2.66026 14.1913 2.66026H5.80612ZM0.832031 6.22409C0.832031 3.48054 3.06257 1.25 5.80612 1.25H14.1913C16.9349 1.25 19.1654 3.48054 19.1654 6.22409V14.6093C19.1654 17.3528 16.9349 19.5834 14.1913 19.5834H5.80612C3.06257 19.5834 0.832031 17.3528 0.832031 14.6093V6.22409ZM14.4973 5.60194C14.3181 5.60194 14.1712 5.74885 14.1712 5.92809C14.1712 6.10733 14.3181 6.25424 14.4973 6.25424C14.6766 6.25424 14.8235 6.10733 14.8235 5.92809C14.8235 5.74885 14.6766 5.60194 14.4973 5.60194ZM12.7609 5.92809C12.7609 4.96998 13.5392 4.19168 14.4973 4.19168C15.4554 4.19168 16.2337 4.96998 16.2337 5.92809C16.2337 6.8862 15.4554 7.6645 14.4973 7.6645C13.5392 7.6645 12.7609 6.8862 12.7609 5.92809ZM9.93661 7.5342C8.3823 7.5342 7.11632 8.80018 7.11632 10.3545C7.11632 11.9093 8.38236 13.1752 9.93661 13.1752C11.4914 13.1752 12.7574 11.9093 12.7574 10.3545C12.7574 8.80024 11.4914 7.5342 9.93661 7.5342ZM5.70606 10.3545C5.70606 8.02132 7.60343 6.12394 9.93661 6.12394C12.2702 6.12394 14.1676 8.02126 14.1676 10.3545C14.1676 12.6881 12.2702 14.5855 9.93661 14.5855C7.60337 14.5855 5.70606 12.6881 5.70606 10.3545Z" fill="#FCFDFD"/>
</svg>

<svg width="20" height="20" fill="none" xmlns="http://www.w3.org/2000/svg"><path fill-rule="evenodd" clip-rule="evenodd" d="M5.806 2.66a3.568 3.568 0 0 0-3.564 3.564v8.385c0 1.965 1.6 3.564 3.564 3.564h8.385c1.965 0 3.564-1.599 3.564-3.564V6.224c0-1.965-1.599-3.564-3.564-3.564H5.806ZM.832 6.224A4.979 4.979 0 0 1 5.806 1.25h8.385a4.979 4.979 0 0 1 4.974 4.974v8.385a4.979 4.979 0 0 1-4.974 4.974H5.806A4.979 4.979 0 0 1 .832 14.61V6.224Zm13.665-.622a.327.327 0 0 0-.326.326c0 .18.147.326.326.326.18 0 .326-.147.326-.326a.327.327 0 0 0-.326-.326Zm-1.736.326a1.738 1.738 0 0 1 3.473 0 1.738 1.738 0 0 1-3.473 0ZM9.937 7.534a2.825 2.825 0 0 0-2.82 2.82 2.825 2.825 0 0 0 2.82 2.821 2.825 2.825 0 0 0 2.82-2.82 2.825 2.825 0 0 0-2.82-2.82Zm-4.23 2.82a4.235 4.235 0 0 1 4.23-4.23 4.235 4.235 0 0 1 4.23 4.23 4.235 4.235 0 0 1-4.23 4.232 4.235 4.235 0 0 1-4.23-4.232Z" fill="#FCFDFD"/></svg>
